X:1
T:Lord Rendal
M:4/4
L:1/8
K:G
 D| G3/2 A/2 B3/2 A/2 G2 D2| Bd cB A3 D| G3/2 A/2 B3/2 A/2 G2 D2| Bd cB A3|\
B/2-c/2| dd Bdc-B AB/2-c/2| d/2d/2 dG ED-E FD| G2 A3/2 F/2 G2A/2-B/2 c|\
 B2 cA G3||
